X: 19950
T: Jiggery Pokerwork
R: jig
M: 6/8
K: Dminor
|:"Dm"D2E FED|A2B "Gm"G3|"C"G2A "F"F2A|"A"AGF "Em"E2F|
"Dm"D2E FED|A2B "Gm"G3|"C"G2A "F"F2A|"A"AGE "Dm"D3:|
|:"Dm"A_A=A FD=A|"C"_A=AF D=A_A|"B"AFD "Gm"BFD|"C"cGE "F"f2c|
"Dm"A_A=A FD=A|"C"_A=AF D=A_A|"Gm"G3 "C"c3|"A"AGE "Dm"D3:|

